!!!OTL: The Flower Carol
!! From: "Folk Songs of the Southern Appalachians;
!! As Sung by Jean Ritchie"  2nd Edition.
!! University of Kentucky Press, 1997.
**kern
*clefG2
*k[f#]
*G:
*M4/4
=1-
{8g
8g
8g
8a
8g
8g
4d}
=2
{8e
8d
8e
8f#
4g
4g}
=3
{8g
8g
8g
8a
8g
8g
4d}
=4
{8e
8d
8e
8f#
4g
4g}
=5
{8dd
8cc
8b
8a
8b
8a
4g}
=6
{8e
8d
8e
8f#
4g
4g}
=7
{8d
8d
8e
8f#
8g
8g
4a}
=8
{8dd
8cc
8b
8a
(4g
4cc)
=9
2g}
2r
==
*-
